X:5667
T:Rothbury Hills
O:england
M:4/4
L:1/8
Q:1/4=48
K:G
V:1
z8|dg>fg d>B GA-|A/2B/2A F2 DG2B/2>c/2|d2 gf>af d3/2z/2|
Bc3/2e/2c B3/2A/2 GE-|E/2c/2B A2 B/2>c/2d3/2B/2G|A2
d/2-[d/2F/2]G4-G/2z/2|de>ce g>f ed-|
d/2D/2G B2 d/2>^c/2c>Bc|D2 E/2>F/2G2B/2-[c/2B/2] d3/2z/2|dg>fg d3/2B/2
GA-|A/2B/2A F2 DE3/2c/2A|
d3/2c/2 AG4-G/2z/2|dg>fg d>B GA-|A/2B/2A F2 DG2B/2>c/2|d2 gf>af d3/2z/2|
Bc3/2e/2c B>A GE-|E/2c/2B A2 B/2>c/2d>BG|A2 d/2F/2G4-G/2z/2|de>ce g>f ed
-|
d/2D/2G B2 d/2>^c/2c3/2B/2c|D2 E/2>F/2G2B/2>c/2 d3/2z/2|dg>fg d3/2B/2
GA-|A/2B/2A F2 DE>cA|
d>f ag4-g-|g2
V:2
z8|d/2c<BA/2B B>G Bc-|cc d2 cB DG/2>A/2|BG Bc Ac BA|
G/2F/2E2F G>A Bc-|c(3e2f2e2d2B|cg f/2e/2d2c B3/2z/2|(3B2c2c2 e3/2d/2 cB-
|
B/2z/2B G>A BA3/2G/2A|d2 cB2G/2>A/2 B3/2z/2|cB3/2A/2B B>G Bc-|cc d3/2z/2
dc2E|
FA cB4z|d/2c<BA/2B B>G Bc-|cc d2 cB DG/2>A/2|BG Bc Ac BA|
G/2F/2E2F G>A Bc-|c(3e2f2e2d2B|cg f/2e/2d2c B3/2z/2|Bc2c e3/2d/2 cB-|
B/2z/2B G>A BA3/2G/2A|d2 cB2G/2-[A/2G/2] B3/2z/2|cB>AB B>G Bc-|cc d2 dc2
E|
FA c/2z/2c>dc2B-|B2- B/2
V:3
z8|B/2A/2G d/2c/2d GD GE|AG A>B cd2e/2>f/2|g2 dd cD GF|
E/2D/2G2A G>F EA|EG AD/2z/2 G/2>A/2B GD|F/2A/2c/2e/2 d/2c/2B2A
G3/2z/2|G/2z/2G E/2G/2A/2B/2 cA DG-|
GG D>F GE3/2D/2E|Fc AG Dd g3/2z/2|fd>cd GD GE|AG A3/2G/2 FA gA/2z/2|
AF AG3/2D/2d G3/2z/2|B/2A/2G d/2c/2d GD GE|AG A>B cd2e/2>f/2|g2 d/2z/2d
cD
GF|
E/2D/2G2A G3/2F/2 EA|EG AD/2z/2 G/2-[A/2G/2]B GD|F/2A/2c/2e/2 d/2c/2B2A
G3/2z/2|G/2z/2G E/2G/2A/2B/2 cA DG-|
GG D>F GE>DE|Fc AG Dd g3/2z/2|fd3/2c/2d GD GE|AG A3/2G/2 FA gG|
AF DE2-[A/2-E/2]A3/2G-|G2- G/2
V:4
z3[D4-G,4-][D-G,-]|[D8-G,8-]|[D8-G,8-]|[D8-G,8-]|
[D8-G,8-]|[D8-G,8-]|[D8-G,8-]|[D8-G,8-]|
[D8-G,8-]|[D8-G,8-]|[D8-G,8-]|[D8-G,8-]|
[D8-G,8-]|[D8-G,8-]|[D8-G,8-]|[D8-G,8-]|
[D8-G,8-]|[D8-G,8-]|[D8-G,8-]|[D8-G,8-]|
[D8-G,8-]|[D8-G,8-]|[D8-G,8-]|[D8-G,8-]|
[D8-G,8-]|[D4-G,4-] [D3/2G,3/2]


